X:13
T:It's Well it's no Worse
M:2/4
L:1/8
B:Thompson's Compleat Collection of 200 Favourite Country Dances, vol. 3 (London, 1773)
Z:Transcribed and edited by Flynn Titford-Mock, 2007
Z:abc's:AK/Fiddler's Companion
K:G
c | BG | {B}AG/F/ | G D2 c | B g2 d/B/ | A/c/A/F/ Dc | BG {B}AG/F/ | G D2 c | BdGB | {B}A3 :|
|: c | B g2 d/B/ | A c2 B/A/ | GBGB | A/G/F/E/ Dc | B g2 d/B/ | A c2 B/A/ | FADF | G3 :|

